rospo-icon-theme-classic-common/22x22/places/folder-grey-unlocked.svg

<svg height="22" width="22" xmlns="http://www.w3.org/2000/svg"><rect height="12" opacity=".2" rx="1" width="20" x="1" y="8.5"/><path d="m1 16c0 .554.446 1 1 1h18c .554 0 1-.446 1-1v-11c0-.554-.446-1-1-1h-10v-1c0-.554-.446-1-1-1h-7c-.554 0-1 .446-1 1" fill="#727272"/><rect height="12" opacity=".2" rx="1" width="20" x="1" y="7.5"/><rect fill="#e4e4e4" height="8" rx="1" width="16" x="3" y="6"/><rect fill="#8e8e8e" height="12" rx="1" width="20" x="1" y="8"/><path d="m2 2c-.554 0-1 .446-1 1v .5c0-.554.446-1 1-1h7c .554 0 1 .446 1 1v-.5c0-.554-.446-1-1-1zm8 2v .5h10c .554 0 1 .446 1 1v-.5c0-.554-.446-1-1-1z" fill="#fff" opacity=".1"/><path d="m11 10c-1.097 0-1.979.894-1.996 2h .996c0-.555.446-1 1-1s1 .445 1 1v2h-1-1-1-.5c-.277 0-.5.223-.5.5v3c0 .277.223.5.5.5h5c .277 0 .5-.223.5-.5v-3c0-.277-.223-.5-.5-.5h-.5v-1.969c0-1.12-.892-2.031-2-2.031z" fill="#323232"/></svg>

<svg xmlns="http://www.w3.org/2000/svg" width="22" height="22" version="1">
 <rect style="opacity:0.2" width="20" height="12" x="1" y="8.5" rx="1" ry="1"/>
 <path style="fill:#727272" d="M 1,16 C 1,16.554 1.446,17 2,17 H 20 C 20.554,17 21,16.554 21,16 V 5 C 21,4.446 20.554,4 20,4 H 10 V 3 C 10,2.446 9.554,2 9,2 H 2 C 1.446,2 1,2.446 1,3"/>
 <rect style="opacity:0.2" width="20" height="12" x="1" y="7.5" rx="1" ry="1"/>
 <rect style="fill:#dcdcdc" width="16" height="8" x="3" y="6" rx="1" ry="1"/>
 <rect style="fill:#8e8e8e" width="20" height="12" x="1" y="8" rx="1" ry="1"/>
 <path style="opacity:0.1;fill:#ffffff" d="M 2,2 C 1.446,2 1,2.446 1,3 V 3.5 C 1,2.946 1.446,2.5 2,2.5 H 9 C 9.554,2.5 10,2.946 10,3.5 V 3 C 10,2.446 9.554,2 9,2 Z M 10,4 V 4.5 H 20 C 20.554,4.5 21,4.946 21,5.5 V 5 C 21,4.446 20.554,4 20,4 Z"/>
 <path style="fill:#323232" d="M 11,10 C 9.903,10 9.021,10.894 9.004,12 H 10 C 10,11.445 10.446,11 11,11 11.554,11 12,11.445 12,12 V 14 H 11 10 9 8.5 C 8.223,14 8,14.223 8,14.5 V 17.5 C 8,17.777 8.223,18 8.5,18 H 13.5 C 13.777,18 14,17.777 14,17.5 V 14.5 C 14,14.223 13.777,14 13.5,14 H 13 V 12.031 C 13,10.911 12.108,10 11,10 Z"/>
</svg>
